packages/astro-components-stencil/src/icons/brightness-auto.svg

<svg width="24" height="24" viewBox="0 0 24 24" fill="none" xmlns="http://www.w3.org/2000/svg">
<path fill-rule="evenodd" clip-rule="evenodd" d="M20 8.68989V5.99989C20 4.89989 19.1 3.99989 18 3.99989H15.31L13.41 2.09989C12.63 1.31989 11.36 1.31989 10.58 2.09989L8.69001 3.99989H6.00001C4.90001 3.99989 4.00001 4.89989 4.00001 5.99989V8.68989L2.10001 10.5899C1.32001 11.3699 1.32001 12.6399 2.10001 13.4199L4.00001 15.3199V17.9999C4.00001 19.0999 4.90001 19.9999 6.00001 19.9999H8.69001L10.59 21.8999C11.37 22.6799 12.64 22.6799 13.42 21.8999L15.32 19.9999H18C19.1 19.9999 20 19.0999 20 17.9999V15.3099L21.9 13.4099C22.68 12.6299 22.68 11.3599 21.9 10.5799L20 8.68989ZM10.85 12.6499H13.15L12 8.99989L10.85 12.6499ZM13.6 13.9999L14.09 15.3999C14.22 15.7599 14.55 15.9999 14.94 15.9899C15.56 15.9899 15.99 15.3799 15.78 14.7999L13.34 7.93989C13.13 7.37989 12.6 6.99989 12 6.99989C11.4 6.99989 10.87 7.37989 10.67 7.94989L8.23001 14.8099C8.02001 15.3899 8.45001 15.9999 9.07001 15.9999C9.45001 15.9999 9.78001 15.7599 9.91001 15.3999L10.4 13.9999H13.6Z" fill="black"/>
</svg>

<svg xmlns="http://www.w3.org/2000/svg" viewBox="0 0 24 24"><g xmlns="http://www.w3.org/2000/svg" id="brightness-auto" fill-rule="nonzero">
            <path d="M10.85 12.65h2.3L12 9l-1.15 3.65zM20 8.69V6c0-1.1-.9-2-2-2h-2.69l-1.9-1.9c-.78-.78-2.05-.78-2.83 0L8.69 4H6c-1.1 0-2 .9-2 2v2.69l-1.9 1.9c-.78.78-.78 2.05 0 2.83l1.9 1.9V18c0 1.1.9 2 2 2h2.69l1.9 1.9c.78.78 2.05.78 2.83 0l1.9-1.9H18c1.1 0 2-.9 2-2v-2.69l1.9-1.9c.78-.78.78-2.05 0-2.83L20 8.69zm-5.91 6.71L13.6 14h-3.2l-.49 1.4c-.13.36-.46.6-.84.6a.888.888 0 01-.84-1.19l2.44-6.86c.2-.57.73-.95 1.33-.95.6 0 1.13.38 1.34.94l2.44 6.86a.888.888 0 01-.84 1.19.874.874 0 01-.85-.59z"/>
        </g></svg>
